**kern	**kern	**dynam
*part1	*part1	*part1
*staff2	*staff1	*
*I"Piano	*	*
*clefF4	*clefG2	*
*k[f#c#]	*k[f#c#]	*
=1	=1	=1
*^	*	*
2.AA	8AAA:	(8aL	f <
!	!	!LO:TX:b:B:t=a Tempo	!
.	8rEE	8dd	.
.	8AAA	8ff#	.
.	8rEE	8aa	.
.	4rEE	8ddd	.
.	.	8fff#J)	.
*v	*v	*	*
=	=	=
*	*8va	*
4A 4d 4f#	4aa 4aaa	[
*	*X8va	*
4r	4r	.
4r	4r	.
=	=	=
[2.AAA [2.AA	[2.B [2.d [2.g [2.b	f
=	=	=
4AAA] 4AA]	4B] 4d] 4g] 4b]	.
4r	4r	.
4r	4r	.
=	=	=
2.r	2.r	.
=	=	=
2.r	2.r	.
=	=	=
*tremolo	*	*
*	*tremolo	*
!	!LO:TX:b:i:t=cresc. molto	!
64AAALLLL	64gg 64bbLLLL	p <
64AA	64b	.
64AAA	64gg 64bb	.
64AA	64b	.
64AAA	64gg 64bb	.
64AA	64b	.
64AAA	64gg 64bb	.
64AA	64b	.
64AAA	64gg 64bb	.
64AA	64b	.
64AAA	64gg 64bb	.
64AA	64b	.
64AAA	64gg 64bb	.
64AA	64b	.
64AAA	64gg 64bb	.
64AA	64b	.
64AAA	64gg 64bb	.
64AA	64b	.
64AAA	64gg 64bb	.
64AA	64b	.
64AAA	64gg 64bb	.
64AA	64b	.
64AAA	64gg 64bb	.
64AA	64b	.
64AAA	64gg 64bb	.
64AA	64b	.
64AAA	64gg 64bb	.
64AA	64b	.
64AAA	64gg 64bb	.
64AA	64b	.
64AAA	64gg 64bb	.
64AA	64b	.
64AAA	64gg 64bb	.
64AA	64b	.
64AAA	64gg 64bb	.
64AA	64b	.
64AAA	64gg 64bb	.
64AA	64b	.
64AAA	64gg 64bb	.
64AA	64b	.
64AAA	64gg 64bb	.
64AA	64b	.
64AAA	64gg 64bb	.
64AA	64b	.
64AAA	64gg 64bb	.
64AA	64b	.
64AAA	64gg 64bb	.
64AAJJJJ	64bJJJJ	.
=	=	=
64AAALLLL	64gg 64bbLLLL	.
64AA	64b	.
64AAA	64gg 64bb	.
64AA	64b	.
64AAA	64gg 64bb	.
64AA	64b	.
64AAA	64gg 64bb	.
64AA	64b	.
64AAA	64gg 64bb	.
64AA	64b	.
64AAA	64gg 64bb	.
64AA	64b	.
64AAA	64gg 64bb	.
64AA	64b	.
64AAA	64gg 64bb	.
64AA	64b	.
64AAA	64gg 64bb	.
64AA	64b	.
64AAA	64gg 64bb	.
64AA	64b	.
64AAA	64gg 64bb	.
64AA	64b	.
64AAA	64gg 64bb	.
64AA	64b	.
64AAA	64gg 64bb	.
64AA	64b	.
64AAA	64gg 64bb	.
64AA	64b	.
64AAA	64gg 64bb	.
64AA	64b	.
64AAA	64gg 64bb	.
64AA	64b	.
64AAA	64gg 64bb	.
64AA	64b	.
64AAA	64gg 64bb	.
64AA	64b	.
64AAA	64gg 64bb	.
64AA	64b	.
64AAA	64gg 64bb	.
64AA	64b	.
64AAA	64gg 64bb	.
64AA	64b	.
64AAA	64gg 64bb	.
64AA	64b	.
64AAA	64gg 64bb	.
64AA	64b	.
64AAA	64gg 64bb	.
64AAJJJJ	64bJJJJ	.
*	*Xtremolo	*
*Xtremolo	*	*
=	=	=
*-	*-	*-
!!!system-decoration: {(s1,s2)}
